X:1
T:Miserere Mei
T:Miserere Mei 
T:Corsican Tradition
C:Traditional
%%score 1 2 3
L:1/8
Q:1/4=71
M:4/4
K:F
V:1 treble nm="Voice"
V:2 treble nm="Voice" snm="Vo."
V:3 bass nm="Voice" snm="Vo."
V:1
"^Adagio" z8 | z8 | z8 | z8 | z8 || z8 | A8 |[M:5/4] z A B8 |[M:4/4]{AB} A8 |[M:3/4] z6 | %10
w: ||||||et|se- cun-|dum||
 c2 B2 A2 |{AB} A2 A4 |[M:4/4] z8 | c8 |[M:6/4] c2 c2 c8 | %15
w: tu- * *|di- nem||o-|num tu- a-|
[M:4/4]{!fermata!B!fermata!c!fermata!d!fermata!c!fermata!B!fermata!c!fermata!B} !fermata!c8 || %16
w: rum.|
[M:4/4] z4 z2 A2 | B4{AB} A4 |[M:5/4] z10 |[M:4/4] c8 | %20
w: De-|le _||me-|
{!fermata!B!fermata!c!fermata!d!fermata!c!fermata!B!fermata!c!fermata!B!fermata!A!fermata!B} !fermata!A8 || %21
w: am|
[M:4/4] z8 | z8 | z8 |[M:5/4] z10 |[M:5/4] z4 A6 |[M:4/4] A2 A6 | %27
w: ||||Re-|qui- em|
[M:5/4] A2 B4{!fermata!A!fermata!B} !fermata!A4 |[M:4/4] z8 | c8- | c8 | %31
w: ae- ter- nam||Do-||
[M:3/4]{BcdcBABA} A2 !fermata!A4 |[M:4/4] z8 | A6 A2 | B6 A2 | G8 | z8 | c8 |{Bcdc} B8 | %39
w: mi- ne||lux per-|pe- tu-|a||e-||
{cBcB} A8 |] %40
w: i.|
V:2
"^rubato, this is an extreme approximation, breathe where it feels right" F3 F FFFE | D4{ED} C4 | %2
w: Mi- se- re- re me- i,|De- us,|
 FFFF F4 | FFF F3 EE | D4{EDC} C4 || (C4 F4- | F8) |[M:5/4] z F G8 |[M:4/4] F8 |[M:3/4] C2 F2 G2 | %10
w: se- cun- dum mag- nam|mi- se- re- cor- di- am|tu- am:|et _|_|se- cun-|dum|mul- * ti-|
 G6 | F2 F4 |[M:4/4] C2 F2 F2 A2 | A8 |[M:6/4]{BAGABA} G2 F2{F} G8 |[M:4/4] !fermata!F8 || %16
w: tu-|di- nem|mi- se- ra- ti-|o-|num tu- a-|rum.|
[M:4/4] (C3 F) F4 | G4{FG} F4 |[M:5/4] C2 C2 F2 F2 G2 |[M:4/4] G8 | %20
w: De- le _|_ _|in- i- qui- ta- tem|me-|
{!fermata!F!fermata!G!fermata!A!fermata!G!fermata!F!fermata!G!fermata!A!fermata!G} !fermata!F8 || %21
w: am|
[M:4/4] F3 F F2 E2 |{DE} D4 C4 | F2 F2 F2 E2 |[M:5/4] D2{EDCDEF} F2 F2 F4 |[M:5/4] C4 F6 | %26
w: Re- qui- em ae-|ter- nam|do- na e- i|Do- * mi- ne.|Re- *|
[M:4/4] F2 F6 |[M:5/4] F2 G4{!fermata!F!fermata!G} !fermata!F4 |[M:4/4] C2 F2 F2{G} A2 | A8 | %30
w: qui- em|ae- ter- nam|do- na e- i|Do-|
{BAGABAGF} G8 |[M:3/4] F2 !fermata!F4 |[M:4/4] (C6 F2) | F6 F2 | G6{FG} F2 | F8 | %36
w: |mi- ne|et _|lux per-|pe- tu-|a|
 (C2 F2){F} G2 G2 | G8 |{AGFGAG} F8 | F8 |] %40
w: lu- * ce- at|e-||i.|
V:3
 z8 | z8 | z8 | z8 | z8 || z4 F,,4- | F,,8 |[M:5/4] z F,, F,,8 |[M:4/4] F,,8 |[M:3/4] z6 | %10
w: |||||et|_|se- cun-|dum||
 C,4 C,2- | C,2 C,4 |[M:4/4] z8 | F,8 |[M:6/4] F,2 F,2 C,8 |[M:4/4] !fermata!C,8 || %16
w: tu- di-|* nem||o-|num tu- a-|rum.|
[M:4/4] z4 F,,4 | F,,8 |[M:5/4] z10 |[M:4/4] C,8 | !fermata!F,,8 ||[M:4/4] z8 | z8 | z8 | %24
w: De-|le||me-|am||||
[M:5/4] z10 |[M:5/4] z4 F,,6 |[M:4/4] F,,2 F,,6 |[M:5/4] F,,2 F,,4 !fermata!F,,4 |[M:4/4] z8 | %29
w: |Re-|qui- em|ae- ter- nam||
 (!~(!F,8 | !~)!C,8) |[M:3/4] C,2 !fermata!F,,4 |[M:4/4] z8 | F,,6 F,,2 | G,,6 F,,2 | F,,8 | z8 | %37
w: Do-||mi- ne||lux per-|pe- tu-|a||
 C,8- | C,8 | F,,8 |] %40
w: e-||i.|

